assets/img/header/arrow.svg

<svg width="13" height="8" viewBox="0 0 13 8" fill="none" xmlns="http://www.w3.org/2000/svg">
<path d="M1.93623 0.688981C3.47094 2.35656 4.96794 3.98372 6.47679 5.62377C8.06677 3.90953 9.59072 2.26655 11.1145 0.62333C11.1658 0.567952 11.2129 0.507878 11.2654 0.453865C11.7845 -0.0800418 12.3505 -0.144942 12.7288 0.312442C13.1795 0.857305 13.0237 1.35192 12.589 1.81948C11.0118 3.51598 9.44194 5.22049 7.86425 6.91651C6.51304 8.36905 6.47276 8.36187 5.10907 6.89046C3.53416 5.19115 1.94854 3.50332 0.37692 1.8005C-0.0868546 1.29801 -0.126447 0.662862 0.279232 0.284025C0.743708 -0.149717 1.20684 -0.0623814 1.63324 0.38118C1.72034 0.471786 1.81003 0.559513 1.93623 0.688981Z" fill="#030303"/>
</svg>

<svg width="13" height="8" viewBox="0 0 13 8" fill="none" xmlns="http://www.w3.org/2000/svg"><path d="M1.936.689l4.54 4.935 4.638-5c.052-.056.099-.116.151-.17.52-.534 1.085-.599 1.464-.142.45.545.295 1.04-.14 1.507-1.577 1.697-3.147 3.401-4.725 5.098C6.513 8.369 6.473 8.362 5.11 6.89 3.534 5.191 1.95 3.503.377 1.8-.087 1.299-.126.664.279.285c.465-.434.928-.346 1.354.097.087.09.177.179.303.308z" fill="#030303"/></svg>
